X: 1
T: Sportsman's, The
C: Trad
R: Hornpipe (Not Swung)
r: 32
M: 4/4
L: 1/8
K: Ador
Z: ABC transcription by Verge Roller
|: AB | "Am" c2 cA "G" B2 BA | "G" GABc dBGB | "Am" c2 cA "G" B2 BG | "Am" E2 A2 A2 AB |
"Am" c2 cA "G" B2 BA | "G" GABc dBGB | "G" gfge dBAG | "Am" E2 A2 A2 :|
|: z2 | "Am" ABcd "G" efge | "D" afdf "Am" edcB | "Am" ABcd "G" efge | "D" afdf "Am" e2 (3efg |
"Am" a2 af "G" g2 ge | "Am" c2 ce "G" dBGB | "Am" cBcA "G" BABG | "Am" E2 A2 A2 :|
